X: 101117
T: Jimmy Doyle's #2
S: "Johnny O'Leary of Sliabh Luachra" (#69)
Z: B.Black
L: 1/8
M: 2/4
Q: 280
R: polka
K: D
FA D>E|FA BA|FA DE|FG/F/ ED/E/|
F/B/A D>E|FA (3B/c/BA|FA/F/ Bc|ed d2|
F/G/A D>E|FA (3B/c/BA|FA D>E|FE (3E/F/E/ D/E/|
FA D>E|FA (3B/c/BA|FA/F/ Bc|ed d2||
D>A BA|dc/d/ BA|FA DE|FE EF/E/|
DF/A/ BA|dA (3B/c/B/A|FA Bc|ed d2 :|
